X: 3297
M: 6/8
L: 1/8
K: Em
EFE G2A | BcB d2B | G2G dcB  | ABG F2D |\
E2F G2A | BcB g2g | fef Be^d | e3- e2 :|
|: B |\
e2f g2e | d2B d3  | GAG d2B  | A2G FED |\
E2F G2A | BcB g2g | fef Be^d | e3- e2 :|


